docs/img/copy.svg

<svg width="24" height="24" viewBox="0 0 24 24" fill="none" xmlns="http://www.w3.org/2000/svg">
<path fill-rule="evenodd" clip-rule="evenodd" d="M11 2C10.4477 2 10 2.44772 10 3V6H15C15.5523 6 16 6.44772 16 7V16H19C19.5523 16 20 15.5523 20 15V3C20 2.44772 19.5523 2 19 2H11ZM11 16C10.4477 16 10 15.5523 10 15V16H11Z" fill="black"/>
<rect x="4" y="8" width="10" height="14" rx="1" fill="black"/>
</svg>

<svg width="24" height="24" fill="none" xmlns="http://www.w3.org/2000/svg"><path fill-rule="evenodd" clip-rule="evenodd" d="M11 2a1 1 0 00-1 1v3h5a1 1 0 011 1v9h3a1 1 0 001-1V3a1 1 0 00-1-1h-8zm0 14a1 1 0 01-1-1v1h1z" fill="#000"/><rect x="4" y="8" width="10" height="14" rx="1" fill="#000"/></svg>
